X: 39048
T: Swat The Fly
R: jig
M: 6/8
K: Dmixolydian
d2 d cAd|cAG F2D|FEF GFG|Ae^c de^c|
d2 d cAd|cAG F2D|EDE cEc|cAd D3:|
|:c2 c cAB|cde d2 A|dcd fef|gab a2 e|
=f2 d eAA|cAd DEF|EDE cAd|cAd D3:|

